!! 00048] TT[KA
!! NN
!!!OTL: Fan Dui hua
!!!ARE: Asia, China,ÿHeilongjiang, Qiqihar
!! Ethnic Group: Han
!! III, 67
!!!SCT: C0279
!!!YEM: Copyright 1995, estate of Helmut Schaffrath.
**kern
*ICvox
*Ivox
*M2/4
*k[f#c#]
*D:
{8dd
8b
4a
=1
8f#
8b
4a
=2
8f#
8a
8b
8a
=3
8b
8dd
4a}
=4
{8a
8b
4dd
=5
16dd
16ee
8b
4a
=6
8a
8f#
8a
8a
=7
8b
16b
16dd
4a}
=8
{8dd
16f#
16b
4a
=9
8f#
8b
4a
=10
8f#
8a
16f#
16f#
16a
16a
=11
8b
8dd
4a}
=12
{8f#
8a
16f#
16f#
16a
16f#
=13
8.dd
16b
4a}
=14
{8f#
8a
16f#
16a
16f#
16a
=15
8b
8dd
4a}
=16
{8f#
8a
16f#
16a
16f#
16a
=17
8b
8dd
4a}
=18
{8f#
8b
4a}
=19
{8f#
8b
4a}
=20
{8f#
8b
4a}
=21
{8f#
8b
4a}
=22
{8d
8B
4d
=23
8r
4d
8B
=24
4.d
16B
16d
=25
2A}
==
!!!AGN: Xiaodiao. Siji huahui
!! Es wird von Dezember bis Januar gezaehlt. +++Aufnahme suchen.
!!    Diese Sammlung enthaelt mit Stand 1987 wenigstens 32 Aufnahmen
!!    mit dem Titel "Dui hua"
!!    C0046, C0495, C0136
!!!ONB: ESAC (Essen Associative Code) Database: CHINA
!!!AMT: simple duple
!!!AIN: vox
!!!EED: Helmut Schaffrath
!!!EEV: 1.0
*-
